symbols/web/zoom_in/materialsymbolsrounded/zoom_in_wght200gradN25_48px.svg

<svg xmlns="http://www.w3.org/2000/svg" height="48" width="48"><path d="m38.65 39.65-12.2-12.2Q25 28.8 23 29.5q-2 .7-3.95.7-4.8 0-8.075-3.275Q7.7 23.65 7.7 18.9t3.25-8.05q3.25-3.3 8-3.3t8.075 3.3q3.325 3.3 3.325 8.05 0 2.05-.75 4.025-.75 1.975-2.05 3.475l12.3 12.2q.2.2.175.525-.025.325-.225.525-.25.25-.6.25t-.55-.25ZM19.05 28.7q4.1 0 6.95-2.825 2.85-2.825 2.85-6.975 0-4.2-2.85-7t-7-2.8q-4.15 0-6.975 2.825Q9.2 14.75 9.2 18.9q0 4.15 2.85 6.975 2.85 2.825 7 2.825ZM19 23.45q-.3 0-.525-.225-.225-.225-.225-.575V19.6h-3.1q-.35 0-.525-.2-.175-.2-.175-.55 0-.35.2-.55.2-.2.55-.2h3.05V15q0-.25.225-.45t.525-.2q.35 0 .55.2.2.2.2.5v3.05h3.05q.35 0 .55.225.2.225.2.575 0 .3-.225.5t-.575.2h-3v3.1q0 .35-.25.55-.25.2-.5.2Z"/></svg>

<svg xmlns="http://www.w3.org/2000/svg" height="48" width="48"><path d="M38.65 39.65 26.45 27.45Q25 28.8 23 29.5Q21 30.2 19.05 30.2Q14.25 30.2 10.975 26.925Q7.7 23.65 7.7 18.9Q7.7 14.15 10.95 10.85Q14.2 7.55 18.95 7.55Q23.7 7.55 27.025 10.85Q30.35 14.15 30.35 18.9Q30.35 20.95 29.6 22.925Q28.85 24.9 27.55 26.4L39.85 38.6Q40.05 38.8 40.025 39.125Q40 39.45 39.8 39.65Q39.55 39.9 39.2 39.9Q38.85 39.9 38.65 39.65ZM19.05 28.7Q23.15 28.7 26 25.875Q28.85 23.05 28.85 18.9Q28.85 14.7 26 11.9Q23.15 9.1 19 9.1Q14.85 9.1 12.025 11.925Q9.2 14.75 9.2 18.9Q9.2 23.05 12.05 25.875Q14.9 28.7 19.05 28.7ZM19 23.45Q18.7 23.45 18.475 23.225Q18.25 23 18.25 22.65V19.6H15.15Q14.8 19.6 14.625 19.4Q14.45 19.2 14.45 18.85Q14.45 18.5 14.65 18.3Q14.85 18.1 15.2 18.1H18.25V15Q18.25 14.75 18.475 14.55Q18.7 14.35 19 14.35Q19.35 14.35 19.55 14.55Q19.75 14.75 19.75 15.05V18.1H22.8Q23.15 18.1 23.35 18.325Q23.55 18.55 23.55 18.9Q23.55 19.2 23.325 19.4Q23.1 19.6 22.75 19.6H19.75V22.7Q19.75 23.05 19.5 23.25Q19.25 23.45 19 23.45Z"/></svg>
